public/avatar/shoe/53.svg

<svg xmlns:xlink="http://www.w3.org/1999/xlink" height="38.3" width="36.05" xmlns="http://www.w3.org/2000/svg"><use height="19.1" transform="translate(9.55 8.95)" width="21.9" xlink:href="#a"/><defs><g id="a"><path d="m13.35 3.55 1.2.2L17 5.05q2.25 1.4 3.2 4.05v-.25l.3.95v.05l.35 1.25.05 1.75q-.55 1.25-2.35 2.15-2.55 1.25-5.95 2.1-4.75 1.25-7.45.95-2.75-.4-4.05-2.1l-.1-2.6q.45-2.3 2.2-4l.1-.1.25-.25q.3-1.65 1.8-2.95L6.5 5.3l.6-2-.05-.2q.05-.75.95-1.15.95-1.1 2.4-.95 2.1.3 2.95 2.55Z" fill="none" stroke="#000" stroke-linecap="round" stroke-linejoin="round" stroke-width="2"/><path d="M-8.3 11.75q-3.35.05-4.65-1.9-1.1-1.65.95-5.05 1.1-2 4.05-4.3 3.4-2.6 5.9-2.6 6.25 0 8.3 6.05.55 1.6.3 2.35Q6.2 8 5 8.55q-6.45 3.05-13.3 3.2" fill-rule="evenodd" transform="translate(14.25 5.9)"/><path d="M-1.25-3.1Q-.4-1.25.15-1 3.3.55 2.4.5q-.7 2.35-3.85 2.25-3.2-.2-6.45-2.95.7-5.1 4.05-4.7 1.9.25 2.6 1.8" fill-rule="evenodd" transform="translate(14.25 5.9)"/><path d="M3.25.9 1.6 2.05-6.6 7.1l-5.1-.5q1-4 3.35-5.9Q-6.5-.75-4.3-1.6 6.05-1.15 3.25.9" fill="#ffc300" fill-rule="evenodd" transform="translate(14.25 5.9)"/><path d="M.3-2.15Q2-1.7 3.25-.45l1 .95-1 .4q-2.1 1.25-4.9.45Q-4.4.5-5.55-.9l-.5-.05 2.2-.9 4.15-.3" fill-rule="evenodd" transform="translate(14.25 5.9)"/><path d="M3.9 7.1q-5.6 2.4-8.05 3l-1.4.3.6-2.35q3.2-.25 5.8-1.2Q4.7 5.5 5.55 4.5q.5-.5.4-1.55l.6 2.15q-.25 1-2.65 2" fill="#d9d9d9" fill-rule="evenodd" transform="translate(14.25 5.9)"/><path d="m-4.65 10.85-3.65.3q-5.2 0-5.1-2.55.05-2.85 2.35-5.15.65-.65 1.15 1.4l2.7.9q1.7.4 2.25 1.1 1 1.15.3 4" fill="#8a8a8a" fill-rule="evenodd" transform="translate(14.25 5.9)"/><path d="M6.55 5.1q.4 1.2.1 1.85Q6.1 8.2 4.3 9.1q-2.55 1.25-5.95 2.1-4.75 1.25-7.45.95-2.75-.4-4.05-2.1l-.2-2.7q1.5 1.65 2.95 2.1 3.35.75 6.7-.1Q1.2 8 4.7 6.45L6.55 5.1" fill="#666" fill-rule="evenodd" transform="translate(14.25 5.9)"/><path d="M-7.2-2.8q.15-1.6 2.5-1.35 2.35.35 2.25 2.3-.1 1.65-2.5 1.3Q-7.3-.9-7.2-2.8" fill="#ffc300" fill-rule="evenodd" transform="translate(14.25 5.9)"/><path d="M-10.2 4.75q-.85-.5-.45-1.95.35-1.5 1.75-2.65Q-5.85-2.3-3.95-.3-2.9.85-3.8 2.4q-.75 1.3-2.25 2.05-2.4 1.3-4.15.3" fill="#303030" fill-rule="evenodd" transform="translate(14.25 5.9)"/><path d="m-10.5 4.5 2.6-3.1Q-6.3-.3-4.65-1" fill="none" stroke="red" stroke-linecap="round" stroke-linejoin="round" transform="translate(14.25 5.9)"/></g></defs></svg>

<?xml version="1.0" encoding="UTF-8" standalone="no"?>
<svg xmlns:xlink="http://www.w3.org/1999/xlink" height="38.3px" width="36.05px" xmlns="http://www.w3.org/2000/svg">
  <g transform="matrix(1.0, 0.0, 0.0, 1.0, 23.8, 14.85)">
    <use height="19.1" transform="matrix(1.0, 0.0, 0.0, 1.0, -14.25, -5.9)" width="21.9" xlink:href="#shape0"/>
  </g>
  <defs>
    <g id="shape0" transform="matrix(1.0, 0.0, 0.0, 1.0, 14.25, 5.9)">
      <path d="M-0.9 -2.35 L0.3 -2.15 2.75 -0.85 Q5.0 0.55 5.95 3.2 L5.95 2.95 6.25 3.9 6.25 3.95 6.6 5.2 6.65 6.95 Q6.1 8.2 4.3 9.1 1.75 10.35 -1.65 11.2 -6.4 12.45 -9.1 12.15 -11.85 11.75 -13.15 10.05 L-13.25 7.45 Q-12.8 5.15 -11.05 3.45 L-10.95 3.35 -10.7 3.1 Q-10.4 1.45 -8.9 0.15 L-7.75 -0.6 -7.15 -2.6 -7.2 -2.8 Q-7.15 -3.55 -6.25 -3.95 -5.3 -5.05 -3.85 -4.9 -1.75 -4.6 -0.9 -2.35 Z" fill="none" stroke="#000000" stroke-linecap="round" stroke-linejoin="round" stroke-width="2.0"/>
      <path d="M-8.3 11.75 Q-11.65 11.8 -12.95 9.85 -14.05 8.2 -12.0 4.8 -10.9 2.8 -7.95 0.5 -4.55 -2.1 -2.05 -2.1 4.2 -2.1 6.25 3.95 6.8 5.55 6.55 6.3 6.2 8.0 5.0 8.55 -1.45 11.6 -8.3 11.75" fill="#000000" fill-rule="evenodd" stroke="none"/>
      <path d="M-1.25 -3.1 Q-0.4 -1.25 0.15 -1.0 3.3 0.55 2.4 0.5 1.7 2.85 -1.45 2.75 -4.65 2.55 -7.9 -0.2 -7.2 -5.3 -3.85 -4.9 -1.95 -4.65 -1.25 -3.1" fill="#000000" fill-rule="evenodd" stroke="none"/>
      <path d="M3.25 0.9 L1.6 2.05 -6.6 7.1 -11.7 6.6 Q-10.7 2.6 -8.35 0.7 -6.5 -0.75 -4.3 -1.6 6.05 -1.15 3.25 0.9" fill="#ffc300" fill-rule="evenodd" stroke="none"/>
      <path d="M0.3 -2.15 Q2.0 -1.7 3.25 -0.45 L4.25 0.5 3.25 0.9 Q1.15 2.15 -1.65 1.35 -4.4 0.5 -5.55 -0.9 L-6.05 -0.95 -3.85 -1.85 0.3 -2.15" fill="#000000" fill-rule="evenodd" stroke="none"/>
      <path d="M3.9 7.1 Q-1.7 9.5 -4.15 10.1 L-5.55 10.4 -4.95 8.05 Q-1.75 7.8 0.85 6.85 4.7 5.5 5.55 4.5 6.05 4.0 5.95 2.95 L6.55 5.1 Q6.3 6.1 3.9 7.1" fill="#d9d9d9" fill-rule="evenodd" stroke="none"/>
      <path d="M-4.65 10.85 L-8.3 11.15 Q-13.5 11.15 -13.4 8.6 -13.35 5.75 -11.05 3.45 -10.4 2.8 -9.9 4.85 L-7.2 5.75 Q-5.5 6.15 -4.95 6.85 -3.95 8.0 -4.65 10.85" fill="#8a8a8a" fill-rule="evenodd" stroke="none"/>
      <path d="M6.55 5.1 Q6.95 6.3 6.65 6.95 6.1 8.2 4.3 9.1 1.75 10.35 -1.65 11.2 -6.4 12.45 -9.1 12.15 -11.85 11.75 -13.15 10.05 L-13.35 7.35 Q-11.85 9.0 -10.4 9.45 -7.05 10.2 -3.7 9.35 1.2 8.0 4.7 6.45 L6.55 5.1" fill="#666666" fill-rule="evenodd" stroke="none"/>
      <path d="M-7.2 -2.8 Q-7.05 -4.4 -4.7 -4.15 -2.35 -3.8 -2.45 -1.85 -2.55 -0.2 -4.95 -0.55 -7.3 -0.9 -7.2 -2.8" fill="#ffc300" fill-rule="evenodd" stroke="none"/>
      <path d="M-10.2 4.75 Q-11.05 4.25 -10.65 2.8 -10.3 1.3 -8.9 0.15 -5.85 -2.3 -3.95 -0.3 -2.9 0.85 -3.8 2.4 -4.55 3.7 -6.05 4.45 -8.45 5.75 -10.2 4.75" fill="#303030" fill-rule="evenodd" stroke="none"/>
      <path d="M-10.5 4.5 L-7.9 1.4 Q-6.3 -0.3 -4.65 -1.0" fill="none" stroke="#ff0000" stroke-linecap="round" stroke-linejoin="round" stroke-width="1.0"/>
    </g>
  </defs>
</svg>
